X:28
T:Kitty's Rambles    Jig      Allan's #28
C:Trad/Anon
B:Allan's Irish Fiddler (pub. Mozart Allen,  Glascow) date unknown
Z:FROM ALLAN'S TO NOTEWORTHY, FROM NOTEWORTHY TO ABC, MIDI AND .TXT BY VINCE
BRENNAN Dec. 2002 (HTTP://WWW.SOSYOURMOM.COM)
I:abc2nwc
M:6/8
L:1/8
K:D
G|FED cBA|dcd efg|fed cAG|FAF GFE|
FED cBA|dcd efg|fed cAG|ABc d2:|
|:A|dfa dfa|dfa afd|=cegceg|=ceggfe|
fdf gfe|agf bag|fed cAG|ABc d2:|
